; HEADER_BLOCK_START
; generated by OrcaSlicer 2.3.2-rc2 on 2026-03-15 at 11:40:55
; total layer number: 80
; filament_density: 1.24
; filament_diameter: 1.75
; max_z_height: 16.00
; filament: 1
; HEADER_BLOCK_END

; THUMBNAIL_BLOCK_START

;
; THUMBNAIL_BLOCK_END

; external perimeters extrusion width = 0.40mm
; perimeters extrusion width = 0.40mm
; infill extrusion width = 0.40mm
; solid infill extrusion width = 0.40mm
; top infill extrusion width = 0.40mm
; first layer extrusion width = 0.40mm

; EXECUTABLE_BLOCK_START
M73 P0 R206
M201 X500 Y500 Z100 E500
M203 X150 Y150 Z20 E30
M204 P500 R500 T500
M205 X8.00 Y8.00 Z0.40 E2.50 ; sets the jerk limits, mm/sec
M106 S0
M106 P2 S0
;TYPE:Custom
M140 S50 T0
M104 S213 T0
M104 S0 T1
M107
M900 K0 T0
G90
G28
M132 X Y Z A B
G1 Z50.000 F420
G161 X Y F3300
M7 T0
M6 T0
M651 S255
;pre-extrude
M108 T0
G1 X-37.50 Y-75.00 F6000
M106
G1 Z0.200 F420
G1 X-37.50 Y-74.00 F6000
G1 X37.50 Y-74.00 E9.5 F1200
G90
G21
M82 ; use absolute distances for extrusion
G92 E0
; filament start gcode
;right_extruder_material: PLA
M106 S0
M106 P2 S0
;LAYER_CHANGE
;Z:0.2
;HEIGHT:0.2
;BEFORE_LAYER_CHANGE
;0.2
G1 E-5 F1500
G92 E0
;AFTER_LAYER_CHANGE
;0.2
;_SET_FAN_SPEED_CHANGING_LAYER
M204 S50
G1 X-13.814 Y-13.814 F4200
G1 Z.6
G1 Z.2
G1 E5 F1500
;TYPE:Skirt
;WIDTH:0.4
G1 F1200
G1 X42.755 Y-70.382 E7.58908
G1 X44.49 Y-71.557 E7.65688
G1 X46.537 Y-72.002 E7.72468
G1 X48.602 Y-71.655 E7.79247
G1 X50.583 Y-70.382 E7.86867
G1 X70.382 Y-50.583 E8.77485
G1 X71.557 Y-48.848 E8.84265
G1 X72.002 Y-46.802 E8.91045
G1 X71.655 Y-44.736 E8.97824
G1 X70.382 Y-42.755 E9.05444
G1 X-42.755 Y70.382 E14.2326
G1 X-44.49 Y71.557 E14.3004
M73 P0 R205
G1 X-46.537 Y72.002 E14.3682
G1 X-48.602 Y71.655 E14.436
G1 X-50.583 Y70.382 E14.51219
G1 X-70.382 Y50.583 E15.41837
G1 X-71.557 Y48.848 E15.48617
G1 X-72.002 Y46.802 E15.55397
G1 X-71.655 Y44.736 E15.62176
G1 X-70.382 Y42.755 E15.69796
G1 X-13.842 Y-13.785 E18.28575
G1 X-13.59 Y-13.533 F4200
G1 F1200
G1 X43.007 Y-70.13 E20.87613
G1 X44.692 Y-71.254 E20.94168
G1 X46.679 Y-71.647 E21.00723
G1 X48.665 Y-71.247 E21.07279
G1 X50.331 Y-70.13 E21.1377
G1 X70.13 Y-50.331 E22.04387
G1 X71.254 Y-48.646 E22.10943
G1 X71.647 Y-46.659 E22.17498
G1 X71.247 Y-44.673 E22.24053
G1 X70.13 Y-43.007 E22.30544
G1 X-43.007 Y70.13 E27.48361
G1 X-44.692 Y71.254 E27.54916
G1 X-46.679 Y71.647 E27.61471
G1 X-48.665 Y71.247 E27.68027
G1 X-50.331 Y70.13 E27.74518
G1 X-70.13 Y50.331 E28.65135
G1 X-71.254 Y48.646 E28.71691
G1 X-71.647 Y46.659 E28.78246
G1 X-71.247 Y44.673 E28.84801
G1 X-70.13 Y43.007 E28.91292
G1 X-13.618 Y-13.505 E31.49942
G1 E26.49942 F1500
;WIPE_START
G1 F1200
G1 X-12.204 Y-14.919
;WIPE_END
G92 E0
G1 X-6.665 Y-9.667 Z.6 F4200
G1 X1.718 Y-1.718 Z.6
G1 X1.927 Y-1.479
G1 X2.104 Y-1.214
G1 X2.244 Y-.93
G1 X2.346 Y-.629
G1 X2.408 Y-.317
G1 X2.429 Y0
G1 X2.408 Y.317
G1 X2.346 Y.629
G1 X2.244 Y.93
G1 X2.744 Y1.1
G1 Z.2
G1 E5 F1500
;TYPE:Inner wall
G1 F600
G1 X2.733 Y1.132 E5.00109
G1 X2.562 Y1.479 E5.01361
G1 X2.347 Y1.801 E5.02614
G1 X2.092 Y2.092 E5.03866
G1 X1.801 Y2.347 E5.05119
G1 X1.479 Y2.562 E5.06372
G1 X1.132 Y2.733 E5.07623
G1 X.766 Y2.858 E5.08876
G1 X.386 Y2.933 E5.10129
G1 X0 Y2.959 E5.11381
G1 X-.386 Y2.933 E5.12634
G1 X-.766 Y2.858 E5.13886
G1 X-1.132 Y2.733 E5.15139
G1 X-1.479 Y2.562 E5.16391
G1 X-1.801 Y2.347 E5.17643
G1 X-2.092 Y2.092 E5.18896
G1 X-2.347 Y1.801 E5.20149
G1 X-2.562 Y1.479 E5.21401
G1 X-2.733 Y1.132 E5.22653
G1 X-2.858 Y.766 E5.23906
G1 X-2.933 Y.386 E5.25159
G1 X-2.959 Y0 E5.26411
G1 X-2.933 Y-.386 E5.27663
G1 X-2.858 Y-.766 E5.28916
G1 X-2.733 Y-1.132 E5.30169
G1 X-2.562 Y-1.479 E5.31421
G1 X-2.347 Y-1.801 E5.32673
G1 X-2.092 Y-2.092 E5.33926
G1 X-1.801 Y-2.347 E5.35178
G1 X-1.479 Y-2.562 E5.36431
G1 X-1.132 Y-2.733 E5.37683
G1 X-.766 Y-2.858 E5.38936
G1 X-.386 Y-2.933 E5.40188
G1 X-.011 Y-2.958 E5.41406
G1 X.385 Y-2.934 E5.42688
G1 X.766 Y-2.858 E5.43945
G1 X1.132 Y-2.733 E5.45198
G1 X1.479 Y-2.562 E5.4645
G1 X1.801 Y-2.347 E5.47703
G1 X2.092 Y-2.092 E5.48955
G1 X2.347 Y-1.801 E5.50208
G1 X2.562 Y-1.479 E5.5146
G1 X2.733 Y-1.132 E5.52712
G1 X2.858 Y-.766 E5.53965
G1 X2.933 Y-.386 E5.55218
G1 X2.959 Y0 E5.5647
G1 X2.933 Y.386 E5.57722
G1 X2.858 Y.766 E5.58975
G1 X2.757 Y1.062 E5.59989
G1 X2.406 Y.985 F4200
;TYPE:Outer wall
G1 F600
G1 X2.403 Y.995 E5.60023
G1 X2.252 Y1.3 E5.61124
G1 X2.063 Y1.583 E5.62224
G1 X1.839 Y1.839 E5.63326
G1 X1.583 Y2.063 E5.64427
G1 X1.3 Y2.252 E5.65528
G1 X.995 Y2.403 E5.66628
G1 X.673 Y2.512 E5.67729
G1 X.339 Y2.578 E5.68831
G1 X0 Y2.601 E5.69931
G1 X-.339 Y2.578 E5.71032
G1 X-.673 Y2.512 E5.72134
G1 X-.995 Y2.403 E5.73235
G1 X-1.3 Y2.252 E5.74335
G1 X-1.583 Y2.063 E5.75436
G1 X-1.839 Y1.839 E5.76537
G1 X-2.063 Y1.583 E5.77639
G1 X-2.252 Y1.3 E5.78739
G1 X-2.403 Y.995 E5.7984
G1 X-2.512 Y.673 E5.80941
G1 X-2.578 Y.339 E5.82042
G1 X-2.601 Y0 E5.83143
G1 X-2.578 Y-.339 E5.84244
G1 X-2.512 Y-.673 E5.85345
G1 X-2.403 Y-.995 E5.86447
G1 X-2.252 Y-1.3 E5.87547
G1 X-2.063 Y-1.583 E5.88648
G1 X-1.839 Y-1.839 E5.89749
G1 X-1.583 Y-2.063 E5.9085
G1 X-1.3 Y-2.252 E5.91951
G1 X-.995 Y-2.403 E5.93052
G1 X-.673 Y-2.512 E5.94153
G1 X-.339 Y-2.578 E5.95254
G1 X-.01 Y-2.6 E5.96323
G1 X.339 Y-2.579 E5.97454
G1 X.673 Y-2.512 E5.98557
G1 X.995 Y-2.403 E5.99658
G1 X1.3 Y-2.252 E6.00759
G1 X1.583 Y-2.063 E6.0186
G1 X1.839 Y-1.839 E6.02961
G1 X2.063 Y-1.583 E6.04062
G1 X2.252 Y-1.3 E6.05163
G1 X2.403 Y-.995 E6.06264
G1 X2.512 Y-.673 E6.07365
G1 X2.578 Y-.339 E6.08466
G1 X2.601 Y0 E6.09567
G1 X2.578 Y.339 E6.10668
G1 X2.512 Y.673 E6.11769
G1 X2.419 Y.948 E6.12707
G1 E1.12707 F1500
;WIPE_START
G1 F600
G1 X2.403 Y.995
G1 X2.252 Y1.3
G1 X2.063 Y1.583
G1 X1.839 Y1.839
G1 X1.583 Y2.063
G1 X1.3 Y2.252
G1 X1.077 Y2.362
;WIPE_END
G92 E0
G1 X-4.441 Y7.635 Z.6 F4200
G1 X-41.121 Y42.681 Z.6
G1 Z.2
G1 E5 F1500
;TYPE:Inner wall
G1 F600
G1 X-41.107 Y42.708 E5.001
G1 X-40.983 Y43.075 E5.01353
G1 X-40.907 Y43.454 E5.02606
G1 X-40.882 Y43.841 E5.03858
G1 X-40.907 Y44.227 E5.0511
G1 X-40.983 Y44.606 E5.06363
G1 X-41.107 Y44.973 E5.07616
G1 X-41.278 Y45.32 E5.08867
G1 X-41.493 Y45.642 E5.1012
G1 X-41.749 Y45.933 E5.11373
G1 X-42.04 Y46.188 E5.12625
G1 X-42.361 Y46.403 E5.13878
G1 X-42.708 Y46.574 E5.1513
G1 X-43.075 Y46.698 E5.16383
G1 X-43.454 Y46.774 E5.17635
G1 X-43.841 Y46.799 E5.18888
G1 X-44.227 Y46.774 E5.2014
G1 X-44.606 Y46.698 E5.21393
G1 X-44.973 Y46.574 E5.22645
G1 X-45.32 Y46.403 E5.23897
G1 X-45.642 Y46.188 E5.2515
G1 X-45.933 Y45.933 E5.26402
G1 X-46.188 Y45.642 E5.27655
G1 X-46.403 Y45.32 E5.28908
G1 X-46.574 Y44.973 E5.30159
G1 X-46.698 Y44.606 E5.31412
G1 X-46.774 Y44.227 E5.32665
G1 X-46.799 Y43.841 E5.33917
G1 X-46.774 Y43.454 E5.3517
G1 X-46.698 Y43.075 E5.36422
G1 X-46.574 Y42.708 E5.37675
G1 X-46.403 Y42.361 E5.38927
G1 X-46.188 Y42.04 E5.40179
G1 X-45.933 Y41.749 E5.41432
G1 X-45.642 Y41.493 E5.42685
G1 X-45.32 Y41.278 E5.43937
G1 X-44.973 Y41.107 E5.45189
G1 X-44.606 Y40.983 E5.46442
G1 X-44.227 Y40.907 E5.47695
G1 X-43.851 Y40.883 E5.48913
G1 X-43.456 Y40.907 E5.50194
G1 X-43.075 Y40.983 E5.51452
G1 X-42.708 Y41.107 E5.52705
G1 X-42.361 Y41.278 E5.53956
G1 X-42.04 Y41.493 E5.55209
G1 X-41.749 Y41.749 E5.56462
G1 X-41.493 Y42.04 E5.57714
G1 X-41.278 Y42.361 E5.58967
G1 X-41.139 Y42.645 E5.59989
G1 X-41.441 Y42.839 F4200
;TYPE:Outer wall
G1 F600
G1 X-41.438 Y42.845 E5.60014
G1 X-41.328 Y43.167 E5.61115
G1 X-41.262 Y43.501 E5.62216
G1 X-41.24 Y43.841 E5.63317
G1 X-41.262 Y44.18 E5.64418
G1 X-41.328 Y44.514 E5.65519
G1 X-41.438 Y44.836 E5.6662
G1 X-41.588 Y45.141 E5.67721
G1 X-41.777 Y45.424 E5.68822
G1 X-42.002 Y45.68 E5.69923
G1 X-42.257 Y45.904 E5.71024
G1 X-42.54 Y46.093 E5.72125
G1 X-42.845 Y46.243 E5.73225
G1 X-43.167 Y46.353 E5.74327
G1 X-43.501 Y46.419 E5.75428
G1 X-43.841 Y46.441 E5.76529
G1 X-44.18 Y46.419 E5.77629
G1 X-44.514 Y46.353 E5.78731
G1 X-44.836 Y46.243 E5.79832
G1 X-45.141 Y46.093 E5.80932
G1 X-45.424 Y45.904 E5.82033
G1 X-45.68 Y45.68 E5.83134
G1 X-45.904 Y45.424 E5.84236
G1 X-46.093 Y45.141 E5.85337
G1 X-46.243 Y44.836 E5.86437
G1 X-46.353 Y44.514 E5.87538
G1 X-46.419 Y44.18 E5.8864
G1 X-46.441 Y43.841 E5.8974
G1 X-46.419 Y43.501 E5.90841
G1 X-46.353 Y43.167 E5.91942
G1 X-46.243 Y42.845 E5.93044
G1 X-46.093 Y42.54 E5.94144
G1 X-45.904 Y42.257 E5.95245
G1 X-45.68 Y42.002 E5.96346
G1 X-45.424 Y41.777 E5.97447
G1 X-45.141 Y41.588 E5.98548
G1 X-44.836 Y41.438 E5.99649
G1 X-44.514 Y41.328 E6.0075
G1 X-44.18 Y41.262 E6.01851
G1 X-43.85 Y41.24 E6.0292
G1 X-43.502 Y41.262 E6.04051
G1 X-43.167 Y41.328 E6.05154
G1 X-42.845 Y41.438 E6.06255
G1 X-42.54 Y41.588 E6.07356
G1 X-42.257 Y41.777 E6.08457
G1 X-42.002 Y42.002 E6.09558
G1 X-41.777 Y42.257 E6.10659
G1 X-41.588 Y42.54 E6.1176
G1 X-41.459 Y42.803 E6.12707
G1 E1.12707 F1500
;WIPE_START
G1 F600
G1 X-41.438 Y42.845
G1 X-41.328 Y43.167
G1 X-41.262 Y43.501
G1 X-41.24 Y43.841
G1 X-41.262 Y44.18
G1 X-41.328 Y44.514
G1 X-41.409 Y44.752
;WIPE_END
G92 E0
G1 X-41.233 Y44.812 Z.6 F4200
G1 X1.971 Y1.971
G1 X2.211 Y1.697
G1 X2.413 Y1.393
G1 X2.575 Y1.067
G1 X2.692 Y.721
G1 X2.763 Y.364
G1 X2.787 Y0
G1 X2.763 Y-.364
G1 X2.692 Y-.721
G1 X2.575 Y-1.067
G1 X2.413 Y-1.393
G1 X2.211 Y-1.697
G1 X2.18 Y-1.732
G1 X41.144 Y-43.139
G1 X40.976 Y-43.106
G1 Z.2
G1 E5 F1500
;TYPE:Inner wall
G1 F600
G1 X40.907 Y-43.455 E5.01152
G1 X40.882 Y-43.84 E5.02402
G1 X40.907 Y-44.227 E5.03655
G1 X40.983 Y-44.607 E5.04909
G1 X41.107 Y-44.973 E5.06161
G1 X41.279 Y-45.32 E5.07414
G1 X41.493 Y-45.641 E5.08664
G1 X41.749 Y-45.933 E5.09918
G1 X42.04 Y-46.188 E5.11172
G1 X42.361 Y-46.403 E5.12422
G1 X42.708 Y-46.574 E5.13675
G1 X43.075 Y-46.698 E5.14927
G1 X43.455 Y-46.774 E5.16181
G1 X43.83 Y-46.799 E5.17399
G1 X44.225 Y-46.774 E5.18679
G1 X44.606 Y-46.699 E5.19937
G1 X44.974 Y-46.574 E5.21194
G1 X45.32 Y-46.402 E5.22443
G1 X45.642 Y-46.188 E5.23694
G1 X45.933 Y-45.933 E5.24948
G1 X46.188 Y-45.642 E5.26201
G1 X46.403 Y-45.32 E5.27453
G1 X46.574 Y-44.974 E5.28702
G1 X46.699 Y-44.606 E5.29958
G1 X46.774 Y-44.226 E5.31212
G1 X46.799 Y-43.841 E5.32462
G1 X46.774 Y-43.455 E5.33714
G1 X46.698 Y-43.075 E5.34969
G1 X46.574 Y-42.708 E5.36221
G1 X46.403 Y-42.361 E5.37473
G1 X46.188 Y-42.04 E5.38724
G1 X45.933 Y-41.749 E5.39978
G1 X45.641 Y-41.493 E5.41232
G1 X45.32 Y-41.279 E5.42482
G1 X44.973 Y-41.107 E5.43734
G1 X44.607 Y-40.983 E5.44987
G1 X44.227 Y-40.907 E5.46241
G1 X43.84 Y-40.882 E5.47493
G1 X43.455 Y-40.907 E5.48744
G1 X43.075 Y-40.982 E5.49997
G1 X42.707 Y-41.107 E5.51254
G1 X42.362 Y-41.279 E5.52503
G1 X42.04 Y-41.493 E5.53754
G1 X41.749 Y-41.749 E5.55008
G1 X41.493 Y-42.04 E5.56261
G1 X41.279 Y-42.362 E5.57513
G1 X41.107 Y-42.707 E5.58762
G1 X40.985 Y-43.067 E5.5999
G1 X41.327 Y-43.175 F4200
;TYPE:Outer wall
G1 F600
G1 X41.262 Y-43.501 E5.61067
G1 X41.24 Y-43.84 E5.62167
G1 X41.262 Y-44.18 E5.63268
G1 X41.328 Y-44.514 E5.6437
G1 X41.438 Y-44.836 E5.65471
G1 X41.589 Y-45.141 E5.66573
G1 X41.777 Y-45.424 E5.67671
G1 X42.002 Y-45.68 E5.68774
G1 X42.258 Y-45.904 E5.69876
G1 X42.54 Y-46.093 E5.70975
G1 X42.845 Y-46.243 E5.72076
G1 X43.167 Y-46.353 E5.73177
G1 X43.501 Y-46.419 E5.7428
G1 X43.831 Y-46.441 E5.75348
G1 X44.179 Y-46.419 E5.76477
G1 X44.514 Y-46.353 E5.77582
G1 X44.837 Y-46.243 E5.78685
G1 X45.141 Y-46.093 E5.79783
G1 X45.424 Y-45.904 E5.80884
G1 X45.68 Y-45.68 E5.81986
G1 X45.904 Y-45.424 E5.83087
G1 X46.093 Y-45.141 E5.84188
G1 X46.243 Y-44.837 E5.85287
G1 X46.353 Y-44.514 E5.86389
G1 X46.419 Y-44.18 E5.87492
G1 X46.441 Y-43.841 E5.88591
G1 X46.419 Y-43.501 E5.89692
G1 X46.353 Y-43.167 E5.90794
G1 X46.243 Y-42.845 E5.91895
G1 X46.093 Y-42.54 E5.92997
G1 X45.904 Y-42.258 E5.94095
G1 X45.68 Y-42.002 E5.95198
G1 X45.424 Y-41.777 E5.963
G1 X45.141 Y-41.589 E5.97399
G1 X44.836 Y-41.438 E5.985
G1 X44.514 Y-41.328 E5.99601
G1 X44.18 Y-41.262 E6.00704
G1 X43.841 Y-41.24 E6.01804
G1 X43.501 Y-41.262 E6.02904
G1 X43.167 Y-41.328 E6.04006
G1 X42.845 Y-41.438 E6.05109
G1 X42.54 Y-41.589 E6.06208
G1 X42.257 Y-41.777 E6.07308
G1 X42.002 Y-42.002 E6.0841
G1 X41.777 Y-42.257 E6.09512
G1 X41.589 Y-42.54 E6.10612
G1 X41.438 Y-42.845 E6.11711
G1 X41.339 Y-43.137 E6.12709
G1 E1.12709 F1500
;WIPE_START
G1 F600
G1 X41.262 Y-43.501
G1 X41.24 Y-43.84
G1 X41.262 Y-44.18
G1 X41.328 Y-44.514
G1 X41.438 Y-44.836
G1 X41.556 Y-45.075
;WIPE_END
G92 E0
G1 X41.389 Y-45.157 Z.6 F4200
G1 X41.427 Y-45.234
G1 X41.629 Y-45.537
G1 X41.87 Y-45.811
G1 X42.144 Y-46.052
G1 X42.447 Y-46.254
G1 X42.774 Y-46.415
G1 X43.119 Y-46.533
G1 X43.477 Y-46.604
G1 X43.831 Y-46.627
G1 X44.203 Y-46.604
G1 X44.562 Y-46.533
G1 X44.908 Y-46.415
G1 X45.234 Y-46.254
G1 X45.537 Y-46.052
G1 X45.811 Y-45.811
G1 X46.052 Y-45.537
G1 X46.155 Y-45.382
G1 X65.589 Y-46.79
G1 X65.468 Y-46.669
G1 Z.2
G1 E5 F1500
;TYPE:Inner wall
G1 F600
G1 X-46.669 Y65.468 E10.13239
G1 X-65.468 Y46.669 E10.99281
M73 P0 R204
G1 X46.669 Y-65.468 E16.1252
G1 X65.44 Y-46.697 E16.98432
G1 X65.973 Y-46.669 F4200
M73 P1 R204
;TYPE:Outer wall
G1 F600
G1 X-46.669 Y65.973 E22.13982
G1 X-65.973 Y46.669 E23.02335
G1 X46.669 Y-65.973 E28.17885
G1 X65.945 Y-46.697 E29.06108
M73 P1 R203
G1 E24.06108 F1500
;WIPE_START
G1 F600
G1 X64.531 Y-45.283
;WIPE_END
G92 E0
G1 X59.418 Y-50.949 Z.6 F4200
G1 X46.555 Y-65.203 Z.6
G1 Z.2
G1 E5 F1500
;TYPE:Bottom surface
;WIDTH:0.400498
G1 F600
G1 X65.089 Y-46.669 E5.84946
G1 X64.836 Y-46.416 E5.86105
G1 X46.416 Y-64.836 E6.7053
G1 X46.163 Y-64.583 E6.71689
G1 X64.583 Y-46.163 E7.56114
G1 X64.331 Y-45.91 E7.57273
G1 X45.91 Y-64.331 E8.41699
G1 X45.657 Y-64.078 E8.42857
G1 X64.078 Y-45.657 E9.27283
G1 X63.825 Y-45.405 E9.28442
G1 X45.405 Y-63.825 E10.12867
G1 X45.152 Y-63.572 E10.14026
G1 X63.572 Y-45.152 E10.98451
G1 X63.319 Y-44.899 E10.9961
G1 X44.899 Y-63.319 E11.84035
G1 X44.646 Y-63.066 E11.85194
G1 X63.066 Y-44.646 E12.69619
G1 X62.814 Y-44.393 E12.70778
G1 X44.393 Y-62.814 E13.55204
G1 X44.14 Y-62.561 E13.56363
G1 X62.561 Y-44.14 E14.40788
G1 X62.308 Y-43.888 E14.41947
G1 X43.888 Y-62.308 E15.26372
G1 X43.635 Y-62.055 E15.27531
G1 X62.055 Y-43.635 E16.11956
G1 X61.802 Y-43.382 E16.13115
G1 X43.382 Y-61.802 E16.9754
G1 X43.129 Y-61.549 E16.98699
G1 X61.549 Y-43.129 E17.83125
G1 X61.296 Y-42.876 E17.84283
G1 X42.876 Y-61.296 E18.68709
G1 X42.623 Y-61.044 E18.69868
G1 X61.044 Y-42.623 E19.54293
G1 X60.791 Y-42.37 E19.55452
G1 X42.37 Y-60.791 E20.39877
G1 X42.118 Y-60.538 E20.41036
M73 P1 R202
G1 X60.538 Y-42.118 E21.25461
G1 X60.285 Y-41.865 E21.2662
G1 X41.865 Y-60.285 E22.11045
G1 X41.612 Y-60.032 E22.12204
G1 X60.032 Y-41.612 E22.9663
G1 X59.779 Y-41.359 E22.97788
G1 X41.359 Y-59.779 E23.82214
G1 X41.106 Y-59.527 E23.83373
G1 X59.527 Y-41.106 E24.67798
G1 X59.274 Y-40.853 E24.68957
G1 X40.853 Y-59.274 E25.53382
G1 X40.601 Y-59.021 E25.54541
G1 X59.021 Y-40.601 E26.38966
G1 X58.768 Y-40.348 E26.40125
G1 X40.348 Y-58.768 E27.2455
G1 X40.095 Y-58.515 E27.25709
G1 X58.515 Y-40.095 E28.10135
G1 X58.262 Y-39.842 E28.11294
G1 X39.842 Y-58.262 E28.95719
G1 X39.589 Y-58.009 E28.96878
G1 X58.009 Y-39.589 E29.81303
G1 X57.757 Y-39.336 E29.82462
G1 X39.336 Y-57.757 E30.66887
G1 X39.083 Y-57.504 E30.68046
G1 X57.504 Y-39.083 E31.52471
G1 X57.251 Y-38.831 E31.5363
M73 P2 R202
G1 X38.831 Y-57.251 E32.38056
G1 X38.578 Y-56.998 E32.39214
G1 X56.998 Y-38.578 E33.2364
G1 X56.745 Y-38.325 E33.24799
G1 X38.325 Y-56.745 E34.09224
G1 X38.072 Y-56.492 E34.10383
G1 X56.492 Y-38.072 E34.94808
G1 X56.24 Y-37.819 E34.95967
G1 X37.819 Y-56.24 E35.80392
G1 X37.566 Y-55.987 E35.81551
G1 X55.987 Y-37.566 E36.65976
G1 X55.734 Y-37.314 E36.67135
G1 X37.314 Y-55.734 E37.51561
G1 X37.061 Y-55.481 E37.52719
G1 X55.481 Y-37.061 E38.37145
G1 X55.228 Y-36.808 E38.38304
G1 X36.808 Y-55.228 E39.22729
G1 X36.555 Y-54.975 E39.23888
G1 X44.547 Y-46.984 E39.60516
G1 X44.259 Y-47.04 E39.61465
G1 X43.966 Y-47.058 E39.62417
G1 X36.302 Y-54.722 E39.97543
G1 X36.049 Y-54.47 E39.98702
M73 P2 R201
G1 X43.475 Y-47.044 E40.32737
G1 X43.047 Y-46.966 E40.34146
G1 X35.796 Y-54.217 E40.67378
G1 X35.544 Y-53.964 E40.68537
G1 X42.665 Y-46.842 E41.01178
G1 X42.321 Y-46.681 E41.02411
G1 X35.291 Y-53.711 E41.34631
G1 X35.038 Y-53.458 E41.3579
G1 X42.008 Y-46.489 E41.67733
G1 X41.724 Y-46.267 E41.68901
G1 X34.785 Y-53.205 E42.00702
