; HEADER_BLOCK_START
; generated by OrcaSlicer 2.3.2-rc2 on 2026-03-15 at 11:39:38
; total layer number: 227
; filament_density: 1.24
; filament_diameter: 1.75
; max_z_height: 45.40
; filament: 1
; HEADER_BLOCK_END

; THUMBNAIL_BLOCK_START

;
; THUMBNAIL_BLOCK_END

; external perimeters extrusion width = 0.40mm
; perimeters extrusion width = 0.40mm
; infill extrusion width = 0.40mm
; solid infill extrusion width = 0.40mm
; top infill extrusion width = 0.40mm
; first layer extrusion width = 0.40mm

; EXECUTABLE_BLOCK_START
M73 P0 R235
M201 X500 Y500 Z100 E500
M203 X150 Y150 Z20 E30
M204 P500 R500 T500
M205 X8.00 Y8.00 Z0.40 E2.50 ; sets the jerk limits, mm/sec
M106 S0
M106 P2 S0
;TYPE:Custom
M140 S50 T0
M104 S213 T0
M104 S0 T1
M107
M900 K0 T0
G90
G28
M132 X Y Z A B
G1 Z50.000 F420
G161 X Y F3300
M7 T0
M6 T0
M651 S255
;pre-extrude
M108 T0
G1 X-37.50 Y-75.00 F6000
M106
G1 Z0.200 F420
G1 X-37.50 Y-74.00 F6000
G1 X37.50 Y-74.00 E9.5 F1200
G90
G21
M82 ; use absolute distances for extrusion
G92 E0
; filament start gcode
;right_extruder_material: PLA
M106 S0
M106 P2 S0
;LAYER_CHANGE
;Z:0.2
;HEIGHT:0.2
;BEFORE_LAYER_CHANGE
;0.2
G1 E-5 F1500
G92 E0
;AFTER_LAYER_CHANGE
;0.2
;_SET_FAN_SPEED_CHANGING_LAYER
M204 S50
G1 X-13.627 Y-13.615 F4200
G1 Z.6
G1 Z.2
G1 E5 F1500
;TYPE:Skirt
;WIDTH:0.4
G1 F1200
G1 X42.948 Y-70.19 E7.58937
G1 X43.8 Y-70.956 E7.62648
G1 X45.007 Y-71.831 E7.67472
G1 X46.963 Y-72.831 E7.7458
G1 X48.399 Y-73.304 E7.79473
G1 X49.274 Y-73.504 E7.8238
G1 X50.79 Y-73.693 E7.87324
G1 X52.281 Y-73.689 E7.92149
G1 X54.433 Y-73.349 E7.992
G1 X55.946 Y-72.853 E8.04353
G1 X57.569 Y-72.06 E8.10199
G1 X58.934 Y-71.13 E8.15546
G1 X60.007 Y-70.19 E8.20163
G1 X70.19 Y-60.007 E8.66767
G1 X70.956 Y-59.155 E8.70477
G1 X71.831 Y-57.948 E8.75301
G1 X72.549 Y-56.641 E8.80126
G1 X73.304 Y-54.556 E8.87303
G1 X73.619 Y-52.963 E8.9256
G1 X73.689 Y-50.674 E8.9997
G1 X73.349 Y-48.522 E9.07022
G1 X72.853 Y-47.009 E9.12175
G1 X72.06 Y-45.386 E9.18021
G1 X71.13 Y-44.021 E9.23368
G1 X70.19 Y-42.948 E9.27985
G1 X-43.199 Y70.426 E14.46918
G1 X-45.007 Y71.831 E14.54328
G1 X-46.314 Y72.549 E14.59152
G1 X-48.528 Y73.339 E14.66762
G1 X-50.79 Y73.693 E14.74172
G1 X-52.968 Y73.624 E14.81224
G1 X-55.203 Y73.127 E14.88634
G1 X-56.891 Y72.425 E14.94551
G1 X-58.293 Y71.603 E14.99811
G1 X-58.934 Y71.13 E15.02389
G1 X-60.007 Y70.19 E15.07007
G1 X-70.19 Y60.007 E15.5361
G1 X-71.38 Y58.61 E15.5955
G1 X-72.549 Y56.641 E15.6696
G1 X-73.155 Y55.071 E15.72406
G1 X-73.512 Y53.644 E15.77167
G1 X-73.714 Y51.475 E15.84219
G1 X-73.624 Y49.987 E15.89043
G1 X-73.349 Y48.522 E15.93868
G1 X-72.853 Y47.009 E15.99021
G1 X-72.06 Y45.386 E16.04867
G1 X-71.13 Y44.021 E16.10214
G1 X-70.19 Y42.948 E16.14831
G1 X-13.656 Y-13.586 E18.7358
G1 X-13.403 Y-13.334 F4200
G1 F1200
G1 X43.2 Y-69.937 E21.32647
G1 X44.036 Y-70.688 E21.36285
M73 P0 R234
G1 X45.208 Y-71.536 E21.40966
G1 X47.084 Y-72.495 E21.47783
G1 X48.478 Y-72.956 E21.52536
G1 X49.353 Y-73.156 E21.55442
G1 X50.823 Y-73.338 E21.60235
G1 X52.269 Y-73.332 E21.64915
G1 X54.334 Y-73.006 E21.7168
G1 X55.799 Y-72.527 E21.76667
G1 X57.378 Y-71.759 E21.82353
G1 X58.702 Y-70.858 E21.87533
G1 X59.755 Y-69.937 E21.92061
G1 X69.937 Y-59.755 E22.38664
G1 X70.688 Y-58.919 E22.42302
G1 X71.536 Y-57.747 E22.46983
G1 X72.231 Y-56.478 E22.51664
G1 X72.956 Y-54.477 E22.58553
G1 X73.263 Y-52.929 E22.63659
G1 X73.332 Y-50.685 E22.70925
G1 X73.006 Y-48.621 E22.77689
G1 X72.527 Y-47.156 E22.82677
G1 X71.759 Y-45.576 E22.88362
G1 X70.858 Y-44.253 E22.93543
G1 X69.937 Y-43.2 E22.9807
G1 X-43.435 Y70.158 E28.16931
G1 X-45.208 Y71.536 E28.24197
G1 X-46.476 Y72.231 E28.28878
G1 X-48.605 Y72.991 E28.36192
G1 X-50.823 Y73.338 E28.43458
G1 X-52.912 Y73.271 E28.50222
G1 X-55.104 Y72.784 E28.57488
G1 X-56.744 Y72.1 E28.63241
G1 X-58.102 Y71.301 E28.6834
G1 X-58.702 Y70.858 E28.70752
G1 X-59.755 Y69.937 E28.75279
G1 X-69.937 Y59.755 E29.21883
G1 X-71.085 Y58.409 E29.27607
G1 X-72.231 Y56.478 E29.34873
G1 X-72.818 Y54.953 E29.40164
G1 X-73.164 Y53.567 E29.44785
G1 X-73.358 Y51.486 E29.51549
G1 X-73.271 Y50.043 E29.56229
G1 X-73.006 Y48.621 E29.6091
G1 X-72.527 Y47.156 E29.65898
G1 X-71.759 Y45.576 E29.71583
G1 X-70.858 Y44.253 E29.76764
G1 X-69.937 Y43.2 E29.81291
G1 X-13.431 Y-13.306 E32.39911
G1 E27.39911 F1500
;WIPE_START
G1 F1200
G1 X-12.017 Y-14.72
;WIPE_END
G92 E0
G1 X-9.643 Y-9.518 Z.6 F4200
G1 Z.2
G1 E5 F1500
;TYPE:Brim
G1 F600
G1 X46.984 Y-66.145 E7.59178
G1 X47.572 Y-66.664 E7.61717
G1 X48.216 Y-67.103 E7.64239
G1 X48.909 Y-67.458 E7.66759
G1 X49.68 Y-67.736 E7.69412
G1 X50.534 Y-67.931 E7.72245
G1 X51.309 Y-68.003 E7.74764
G1 X52.088 Y-67.978 E7.77285
G1 X52.857 Y-67.856 E7.79807
G1 X53.604 Y-67.641 E7.82323
G1 X54.526 Y-67.224 E7.85599
G1 X55.229 Y-66.78 E7.88289
G1 X55.972 Y-66.144 E7.91452
G1 X66.145 Y-55.971 E8.38015
G1 X66.664 Y-55.382 E8.40554
G1 X67.103 Y-54.739 E8.43075
G1 X67.458 Y-54.046 E8.45596
G1 X67.736 Y-53.274 E8.48249
G1 X67.931 Y-52.421 E8.51082
G1 X68.003 Y-51.646 E8.53601
G1 X67.978 Y-50.867 E8.56122
G1 X67.856 Y-50.098 E8.58643
G1 X67.641 Y-49.351 E8.61159
G1 X67.224 Y-48.428 E8.64436
G1 X66.78 Y-47.726 E8.67126
G1 X66.144 Y-46.983 E8.70289
G1 X-46.984 Y66.145 E13.88064
G1 X-47.572 Y66.664 E13.90604
G1 X-48.216 Y67.103 E13.93125
G1 X-48.909 Y67.458 E13.95643
G1 X-49.772 Y67.762 E13.98607
G1 X-50.533 Y67.931 E14.01129
G1 X-51.309 Y68.003 E14.0365
G1 X-52.088 Y67.978 E14.06172
G1 X-52.857 Y67.856 E14.08693
G1 X-53.604 Y67.641 E14.11209
G1 X-54.526 Y67.224 E14.14485
G1 X-55.229 Y66.78 E14.17175
G1 X-55.972 Y66.144 E14.20338
G1 X-66.145 Y55.971 E14.66901
G1 X-66.664 Y55.382 E14.6944
G1 X-67.103 Y54.739 E14.71961
G1 X-67.458 Y54.046 E14.7448
G1 X-67.762 Y53.182 E14.77444
G1 X-67.931 Y52.421 E14.79966
G1 X-68.003 Y51.646 E14.82487
G1 X-67.978 Y50.867 E14.85008
G1 X-67.856 Y50.098 E14.8753
G1 X-67.641 Y49.351 E14.90045
G1 X-67.224 Y48.428 E14.93322
G1 X-66.78 Y47.726 E14.96012
G1 X-66.144 Y46.983 E14.99175
G1 X-9.672 Y-9.489 E17.57643
G1 X-9.419 Y-9.237 F4200
M73 P0 R233
G1 F600
G1 X47.226 Y-65.882 E20.16903
G1 X47.797 Y-66.386 E20.19367
G1 X48.405 Y-66.798 E20.21743
G1 X49.058 Y-67.132 E20.24118
G1 X49.787 Y-67.394 E20.26626
G1 X50.584 Y-67.576 E20.29269
G1 X51.313 Y-67.645 E20.31641
G1 X52.047 Y-67.622 E20.34017
G1 X52.773 Y-67.508 E20.36394
G1 X53.473 Y-67.307 E20.38751
G1 X54.35 Y-66.912 E20.41865
G1 X55.022 Y-66.486 E20.44439
G1 X55.726 Y-65.885 E20.47436
G1 X65.882 Y-55.728 E20.9392
G1 X66.386 Y-55.157 E20.96384
G1 X66.792 Y-54.561 E20.98717
G1 X67.127 Y-53.909 E21.01091
G1 X67.39 Y-53.18 E21.03601
G1 X67.576 Y-52.371 E21.06286
G1 X67.645 Y-51.628 E21.08701
G1 X67.621 Y-50.894 E21.11077
G1 X67.508 Y-50.182 E21.13411
G1 X67.307 Y-49.482 E21.15768
G1 X66.912 Y-48.605 E21.18882
G1 X66.486 Y-47.932 E21.21456
G1 X65.879 Y-47.223 E21.2448
G1 X-47.226 Y65.882 E26.4215
G1 X-47.797 Y66.386 E26.44613
G1 X-48.393 Y66.792 E26.46947
G1 X-49.044 Y67.126 E26.49313
G1 X-49.877 Y67.42 E26.52173
G1 X-50.582 Y67.576 E26.5451
G1 X-51.313 Y67.645 E26.56887
G1 X-52.061 Y67.621 E26.59307
G1 X-52.773 Y67.508 E26.6164
G1 X-53.473 Y67.307 E26.63998
G1 X-54.35 Y66.912 E26.67111
G1 X-55.022 Y66.486 E26.69686
G1 X-55.732 Y65.879 E26.72709
G1 X-65.882 Y55.728 E27.19167
G1 X-66.377 Y55.168 E27.21587
G1 X-66.792 Y54.561 E27.23964
G1 X-67.131 Y53.898 E27.26376
G1 X-67.42 Y53.078 E27.2919
G1 X-67.578 Y52.359 E27.3157
G1 X-67.645 Y51.641 E27.33904
G1 X-67.622 Y50.907 E27.3628
G1 X-67.505 Y50.169 E27.387
G1 X-67.302 Y49.468 E27.41064
G1 X-66.912 Y48.605 E27.44128
G1 X-66.486 Y47.932 E27.46703
G1 X-65.879 Y47.223 E27.49726
G1 X-9.448 Y-9.208 E30.08006
G1 X-9.195 Y-8.956 F4200
M73 P1 R233
G1 F600
G1 X47.468 Y-65.62 E32.67349
G1 X48.022 Y-66.107 E32.69736
G1 X48.593 Y-66.494 E32.71968
G1 X49.207 Y-66.806 E32.74196
G1 X49.894 Y-67.052 E32.76559
G1 X50.634 Y-67.221 E32.79014
G1 X51.318 Y-67.286 E32.81239
G1 X52.007 Y-67.266 E32.83471
G1 X52.689 Y-67.16 E32.85703
G1 X53.342 Y-66.973 E32.87902
G1 X54.173 Y-66.599 E32.90852
G1 X54.816 Y-66.193 E32.93311
G1 X55.48 Y-65.625 E32.9614
G1 X65.619 Y-55.486 E33.42546
G1 X66.107 Y-54.932 E33.44933
G1 X66.487 Y-54.373 E33.47123
G1 X66.796 Y-53.772 E33.49307
G1 X67.045 Y-53.085 E33.51674
G1 X67.221 Y-52.321 E33.5421
G1 X67.287 Y-51.611 E33.5652
G1 X67.264 Y-50.921 E33.58752
G1 X67.157 Y-50.253 E33.60942
G1 X66.973 Y-49.613 E33.63099
G1 X66.599 Y-48.781 E33.66049
G1 X66.193 Y-48.139 E33.68507
G1 X65.614 Y-47.463 E33.71391
G1 X-47.468 Y65.62 E38.88956
G1 X-48.022 Y66.107 E38.91343
M73 P1 R232
G1 X-48.582 Y66.487 E38.93533
G1 X-49.179 Y66.794 E38.95704
G1 X-49.982 Y67.077 E38.9846
G1 X-50.644 Y67.223 E39.00656
G1 X-51.318 Y67.286 E39.02845
G1 X-52.034 Y67.264 E39.05162
G1 X-52.702 Y67.157 E39.07352
G1 X-53.342 Y66.973 E39.09509
G1 X-54.173 Y66.599 E39.12458
G1 X-54.816 Y66.193 E39.14917
G1 X-55.492 Y65.614 E39.178
G1 X-65.62 Y55.486 E39.64153
G1 X-66.091 Y54.953 E39.66455
G1 X-66.48 Y54.384 E39.68687
G1 X-66.805 Y53.75 E39.70993
G1 X-67.077 Y52.973 E39.73655
G1 X-67.225 Y52.298 E39.75894
G1 X-67.287 Y51.624 E39.78085
G1 X-67.266 Y50.948 E39.80274
G1 X-67.157 Y50.254 E39.82547
G1 X-66.963 Y49.585 E39.84802
G1 X-66.6 Y48.781 E39.87655
G1 X-66.193 Y48.139 E39.90114
G1 X-65.614 Y47.463 E39.92997
G1 X-9.223 Y-8.928 E42.5109
G1 X-8.971 Y-8.675 F4200
G1 F600
G1 X47.71 Y-65.356 E45.10514
G1 X48.247 Y-65.827 E45.12824
G1 X48.781 Y-66.189 E45.14911
G1 X49.355 Y-66.48 E45.16994
G1 X50.001 Y-66.71 E45.19212
G1 X50.684 Y-66.866 E45.2148
G1 X51.323 Y-66.928 E45.23559
G1 X51.968 Y-66.91 E45.25646
G1 X52.605 Y-66.812 E45.27734
G1 X53.212 Y-66.639 E45.29775
G1 X53.997 Y-66.287 E45.32559
G1 X54.609 Y-65.9 E45.34902
G1 X55.234 Y-65.365 E45.37565
G1 X65.357 Y-55.244 E45.83891
G1 X65.828 Y-54.708 E45.86202
G1 X66.176 Y-54.196 E45.88207
G1 X66.465 Y-53.635 E45.90246
G1 X66.7 Y-52.99 E45.92469
G1 X66.866 Y-52.271 E45.94856
G1 X66.929 Y-51.593 E45.9706
G1 X66.906 Y-50.949 E45.99146
G1 X66.809 Y-50.337 E46.01151
G1 X66.639 Y-49.743 E46.03151
G1 X66.287 Y-48.958 E46.05936
G1 X65.9 Y-48.346 E46.08279
G1 X65.349 Y-47.703 E46.11022
G1 X-47.71 Y65.356 E51.28481
G1 X-48.247 Y65.828 E51.30792
G1 X-48.759 Y66.176 E51.32796
G1 X-49.314 Y66.462 E51.34816
G1 X-50.086 Y66.734 E51.37467
G1 X-50.693 Y66.868 E51.39478
G1 X-51.322 Y66.928 E51.41523
G1 X-52.006 Y66.906 E51.43738
G1 X-52.617 Y66.809 E51.45741
G1 X-53.212 Y66.639 E51.47741
G1 X-53.997 Y66.287 E51.50526
G1 X-54.609 Y65.9 E51.52869
G1 X-55.252 Y65.349 E51.55612
G1 X-65.357 Y55.244 E52.01861
G1 X-65.804 Y54.738 E52.04045
G1 X-66.169 Y54.207 E52.06131
G1 X-66.478 Y53.602 E52.0833
G1 X-66.734 Y52.87 E52.1084
G1 X-66.872 Y52.236 E52.12937
G1 X-66.929 Y51.619 E52.14943
G1 X-66.91 Y50.988 E52.16988
G1 X-66.809 Y50.338 E52.19115
G1 X-66.624 Y49.702 E52.2126
G1 X-66.288 Y48.958 E52.23902
G1 X-65.9 Y48.346 E52.26246
G1 X-65.349 Y47.703 E52.28989
G1 X-8.999 Y-8.647 E54.86894
G1 X-8.747 Y-8.394 F4200
G1 F600
G1 X47.952 Y-65.093 E57.46399
G1 X48.471 Y-65.548 E57.48632
M73 P1 R231
G1 X48.968 Y-65.883 E57.50573
G1 X49.503 Y-66.154 E57.5251
G1 X50.107 Y-66.368 E57.54585
G1 X50.734 Y-66.511 E57.56668
G1 X51.329 Y-66.57 E57.58601
G1 X51.929 Y-66.554 E57.60544
G1 X52.522 Y-66.463 E57.62487
G1 X53.082 Y-66.305 E57.64369
G1 X53.821 Y-65.975 E57.66988
G1 X54.402 Y-65.607 E57.69214
G1 X54.988 Y-65.106 E57.71711
G1 X65.093 Y-55.002 E58.17956
G1 X65.548 Y-54.483 E58.20191
G1 X65.871 Y-54.007 E58.22053
G1 X66.134 Y-53.498 E58.23906
G1 X66.354 Y-52.894 E58.25987
G1 X66.511 Y-52.221 E58.28223
G1 X66.571 Y-51.576 E58.3032
G1 X66.549 Y-50.977 E58.32259
G1 X66.461 Y-50.421 E58.34081
G1 X66.305 Y-49.873 E58.35925
G1 X65.975 Y-49.134 E58.38545
G1 X65.607 Y-48.553 E58.40771
G1 X65.084 Y-47.942 E58.43374
G1 X-47.952 Y65.093 E63.60726
G1 X-48.472 Y65.548 E63.62961
G1 X-48.948 Y65.871 E63.64823
G1 X-49.449 Y66.13 E63.66649
G1 X-50.191 Y66.392 E63.69194
G1 X-50.755 Y66.515 E63.71064
G1 X-51.327 Y66.57 E63.72922
G1 X-51.979 Y66.549 E63.75035
G1 X-52.534 Y66.461 E63.76851
G1 X-53.082 Y66.305 E63.78695
G1 X-53.821 Y65.975 E63.81315
G1 X-54.402 Y65.607 E63.8354
G1 X-55.012 Y65.084 E63.86144
G1 X-65.094 Y55.001 E64.32289
G1 X-65.518 Y54.523 E64.34356
G1 X-65.858 Y54.029 E64.36295
G1 X-66.152 Y53.454 E64.38387
G1 X-66.391 Y52.766 E64.40744
G1 X-66.519 Y52.175 E64.427
G1 X-66.571 Y51.602 E64.44564
G1 X-66.554 Y51.027 E64.46425
G1 X-66.458 Y50.409 E64.48448
G1 X-66.285 Y49.819 E64.50439
G1 X-65.975 Y49.135 E64.52869
G1 X-65.607 Y48.553 E64.55098
G1 X-65.084 Y47.942 E64.57701
G1 X-8.775 Y-8.366 E67.15419
G1 X-8.522 Y-8.114 F4200
G1 F600
G1 X48.194 Y-64.83 E69.75004
G1 X48.695 Y-65.268 E69.77159
G1 X49.156 Y-65.578 E69.78954
G1 X49.65 Y-65.827 E69.80746
G1 X50.213 Y-66.026 E69.82677
G1 X50.785 Y-66.157 E69.84578
G1 X51.335 Y-66.212 E69.86366
G1 X51.89 Y-66.198 E69.88164
G1 X52.44 Y-66.115 E69.89962
G1 X52.952 Y-65.97 E69.91686
G1 X53.645 Y-65.662 E69.94138
G1 X54.195 Y-65.314 E69.96247
G1 X54.742 Y-64.846 E69.98577
G1 X64.83 Y-54.761 E70.44742
G1 X65.269 Y-54.259 E70.46899
G1 X65.56 Y-53.83 E70.48578
G1 X65.803 Y-53.36 E70.50288
G1 X66.009 Y-52.798 E70.52226
G1 X66.156 Y-52.171 E70.54311
G1 X66.213 Y-51.559 E70.563
G1 X66.192 Y-51.006 E70.58092
G1 X66.11 Y-50.492 E70.59775
G1 X65.97 Y-50.003 E70.61422
G1 X65.662 Y-49.31 E70.63875
G1 X65.314 Y-48.76 E70.65983
G1 X64.819 Y-48.182 E70.68446
G1 X-48.194 Y64.83 E75.85692
G1 X-48.696 Y65.269 E75.87849
M73 P2 R230
G1 X-49.125 Y65.56 E75.89528
G1 X-49.585 Y65.798 E75.91203
G1 X-50.295 Y66.049 E75.93642
G1 X-50.804 Y66.16 E75.95328
G1 X-51.331 Y66.212 E75.97041
G1 X-51.952 Y66.192 E75.99051
G1 X-52.462 Y66.11 E76.00725
G1 X-52.952 Y65.97 E76.02372
G1 X-53.645 Y65.662 E76.04825
G1 X-54.195 Y65.314 E76.06933
G1 X-54.772 Y64.819 E76.09396
G1 X-64.832 Y54.759 E76.55437
G1 X-65.232 Y54.307 E76.57389
G1 X-65.546 Y53.852 E76.59181
G1 X-65.825 Y53.306 E76.61163
G1 X-66.048 Y52.663 E76.63368
G1 X-66.166 Y52.115 E76.65182
G1 X-66.213 Y51.597 E76.66864
G1 X-66.198 Y51.067 E76.68582
G1 X-66.11 Y50.494 E76.70456
G1 X-65.946 Y49.937 E76.72337
G1 X-65.663 Y49.311 E76.74557
G1 X-65.314 Y48.76 E76.7667
G1 X-64.819 Y48.182 E76.79133
G1 X-8.551 Y-8.085 E79.36665
G1 X-8.298 Y-7.833 F4200
G1 F600
G1 X48.436 Y-64.567 E81.96329
G1 X48.919 Y-64.988 E81.98405
G1 X49.342 Y-65.272 E82.00054
G1 X49.797 Y-65.5 E82.017
G1 X50.306 Y-65.68 E82.03449
G1 X50.836 Y-65.802 E82.0521
G1 X51.341 Y-65.854 E82.06852
G1 X51.852 Y-65.841 E82.08506
G1 X52.358 Y-65.766 E82.1016
G1 X52.823 Y-65.635 E82.11725
G1 X53.469 Y-65.35 E82.14009
G1 X53.989 Y-65.021 E82.16
G1 X54.497 Y-64.587 E82.18163
G1 X64.567 Y-54.519 E82.64247
G1 X64.981 Y-54.045 E82.66284
G1 X65.249 Y-53.652 E82.67825
G1 X65.472 Y-53.222 E82.69392
G1 X65.664 Y-52.702 E82.71187
G1 X65.801 Y-52.12 E82.7312
G1 X65.855 Y-51.542 E82.75
G1 X65.835 Y-51.034 E82.76644
G1 X65.762 Y-50.576 E82.78146
G1 X65.636 Y-50.132 E82.7964
G1 X65.35 Y-49.486 E82.81926
G1 X65.021 Y-48.967 E82.83915
G1 X64.554 Y-48.422 E82.86238
G1 X-48.436 Y64.567 E88.03377
G1 X-48.92 Y64.99 E88.05457
G1 X-49.303 Y65.249 E88.06955
G1 X-49.721 Y65.466 E88.08478
G1 X-50.4 Y65.707 E88.10811
G1 X-50.866 Y65.808 E88.12354
G1 X-51.336 Y65.853 E88.13882
G1 X-51.925 Y65.835 E88.15788
G1 X-52.379 Y65.762 E88.17277
G1 X-52.823 Y65.636 E88.1877
G1 X-53.469 Y65.35 E88.21056
G1 X-53.988 Y65.021 E88.23045
G1 X-54.532 Y64.554 E88.25368
G1 X-64.569 Y54.516 E88.71307
G1 X-64.946 Y54.092 E88.73144
G1 X-65.235 Y53.674 E88.74788
G1 X-65.498 Y53.159 E88.7666
G1 X-65.705 Y52.56 E88.7871
G1 X-65.813 Y52.055 E88.80383
G1 X-65.855 Y51.58 E88.81926
G1 X-65.842 Y51.106 E88.83461
G1 X-65.758 Y50.565 E88.85231
G1 X-65.607 Y50.054 E88.86955
G1 X-65.351 Y49.488 E88.88966
G1 X-65.022 Y48.967 E88.90962
G1 X-64.554 Y48.422 E88.93285
G1 X-8.326 Y-7.805 E91.50631
G1 X-8.074 Y-7.552 F4200
G1 F600
G1 X48.677 Y-64.303 E94.10373
G1 X49.142 Y-64.708 E94.1237
G1 X49.528 Y-64.966 E94.13872
G1 X49.943 Y-65.173 E94.15373
G1 X50.412 Y-65.338 E94.16982
G1 X50.888 Y-65.448 E94.18563
G1 X51.349 Y-65.495 E94.20061
G1 X51.815 Y-65.485 E94.2157
G1 X52.276 Y-65.417 E94.2308
G1 X52.695 Y-65.301 E94.24486
G1 X53.293 Y-65.037 E94.26601
G1 X53.782 Y-64.728 E94.28473
