; HEADER_BLOCK_START
; generated by OrcaSlicer 2.3.2-rc2 on 2026-03-15 at 15:14:19
; total layer number: 227
; filament_density: 1.24
; filament_diameter: 1.75
; max_z_height: 45.40
; filament: 1
; HEADER_BLOCK_END

; THUMBNAIL_BLOCK_START

;
; THUMBNAIL_BLOCK_END

; external perimeters extrusion width = 0.40mm
; perimeters extrusion width = 0.40mm
; infill extrusion width = 0.40mm
; solid infill extrusion width = 0.40mm
; top infill extrusion width = 0.40mm
; first layer extrusion width = 0.40mm

; external perimeters extrusion width = 0.40mm
; perimeters extrusion width = 0.40mm
; infill extrusion width = 0.40mm
; solid infill extrusion width = 0.40mm
; top infill extrusion width = 0.40mm
; first layer extrusion width = 0.40mm

; EXECUTABLE_BLOCK_START
M73 P0 R440
M201 X500 Y500 Z100 E500
M203 X150 Y150 Z20 E30
M204 P500 R500 T500
M205 X8.00 Y8.00 Z0.40 E2.50 ; sets the jerk limits, mm/sec
M106 S0
M106 P2 S0
;TYPE:Custom
M140 S50 T0
M104 S213 T0
M104 S0 T1
M107
M900 K0 T0
G90
G28
M132 X Y Z A B
G1 Z50.000 F420
G161 X Y F3300
M7 T0
M6 T0
M651 S255
;pre-extrude
M108 T0
G1 X-37.50 Y-75.00 F6000
M73 P0 R439
M106
G1 Z0.200 F420
G1 X-37.50 Y-74.00 F6000
G1 X37.50 Y-74.00 E9.5 F1200
G90
G21
M82 ; use absolute distances for extrusion
G92 E0
; filament start gcode
;right_extruder_material: PLA
M106 S0
M106 P2 S0
;LAYER_CHANGE
;Z:0.2
;HEIGHT:0.2
;BEFORE_LAYER_CHANGE
;0.2
G1 E-5 F1500
G92 E0
;AFTER_LAYER_CHANGE
;0.2
;_SET_FAN_SPEED_CHANGING_LAYER
M204 S50
G1 X-2.178 Y-2.178 F4200
G1 Z.6
G1 Z.2
G1 E5 F1500
;TYPE:Brim
;WIDTH:0.4
G1 F600
G1 X-58.251 Y53.894 E7.56637
G1 X-58.307 Y53.982 E7.56977
G1 X-58.323 Y54.118 E7.57419
G1 X-58.251 Y54.288 E7.58016
G1 X-57.034 Y55.505 E7.63587
G1 X-57.271 Y55.744 E7.64678
G1 X-57.858 Y56.265 E7.67217
G1 X-58.501 Y56.706 E7.69739
G1 X-59.193 Y57.063 E7.72259
G1 X-59.963 Y57.342 E7.74912
G1 X-60.816 Y57.539 E7.77745
G1 X-61.591 Y57.614 E7.80264
G1 X-62.37 Y57.591 E7.82785
G1 X-63.14 Y57.472 E7.85307
G1 X-63.887 Y57.258 E7.87822
G1 X-64.811 Y56.843 E7.91099
G1 X-65.515 Y56.401 E7.93789
G1 X-66.259 Y55.768 E7.96952
G1 X-74.821 Y47.252 E8.36035
G1 X-74.821 Y34.963 E8.75806
G1 X34.364 Y-74.821 E13.76909
G1 X47.338 Y-74.821 E14.18896
G1 X55.523 Y-66.681 E14.56258
G1 X56.044 Y-66.094 E14.58798
G1 X56.484 Y-65.451 E14.61319
G1 X56.841 Y-64.76 E14.63837
G1 X57.148 Y-63.897 E14.66801
G1 X57.318 Y-63.136 E14.69323
G1 X57.393 Y-62.361 E14.71844
G1 X57.37 Y-61.582 E14.74365
G1 X57.251 Y-60.812 E14.76887
G1 X57.037 Y-60.065 E14.79401
G1 X56.596 Y-59.093 E14.82855
G1 X56.137 Y-58.387 E14.85583
G1 X55.241 Y-59.273 E14.89663
G1 X55.192 Y-59.3 E14.89842
G1 X55.056 Y-59.315 E14.90284
G1 X54.886 Y-59.243 E14.90881
G1 X-2.15 Y-2.206 E17.51931
G1 X-2.402 Y-2.459 F4200
M73 P0 R438
G1 F600
G1 X-58.497 Y53.636 E20.08669
G1 X-58.602 Y53.781 E20.09251
G1 X-58.664 Y53.955 E20.09845
G1 X-58.676 Y54.064 E20.10203
G1 X-58.646 Y54.27 E20.10877
G1 X-58.583 Y54.418 E20.11396
G1 X-58.496 Y54.548 E20.11903
G1 X-57.62 Y55.424 E20.15913
G1 X-57.59 Y55.52 E20.16238
G1 X-57.624 Y55.58 E20.16461
G1 X-58.084 Y55.987 E20.18449
G1 X-58.679 Y56.395 E20.20782
G1 X-59.343 Y56.737 E20.232
G1 X-60.071 Y57.001 E20.25707
G1 X-60.867 Y57.185 E20.2835
G1 X-61.61 Y57.256 E20.30765
G1 X-62.344 Y57.234 E20.33142
G1 X-63.056 Y57.123 E20.35476
G1 X-63.771 Y56.919 E20.37882
G1 X-64.635 Y56.531 E20.40947
G1 X-65.296 Y56.117 E20.43472
G1 X-66.014 Y55.508 E20.46518
G1 X-74.433 Y47.135 E20.84944
G1 X-74.464 Y47.059 E20.8521
G1 X-74.464 Y35.155 E21.23737
G1 X-74.433 Y35.079 E21.24002
G1 X34.481 Y-74.433 E26.2386
G1 X34.557 Y-74.464 E26.24126
G1 X47.146 Y-74.464 E26.64869
G1 X47.222 Y-74.433 E26.65133
G1 X55.261 Y-66.438 E27.01829
G1 X55.757 Y-65.878 E27.04249
G1 X56.18 Y-65.262 E27.06669
G1 X56.515 Y-64.611 E27.09039
G1 X56.802 Y-63.804 E27.1181
G1 X56.966 Y-63.073 E27.14232
G1 X57.035 Y-62.342 E27.16609
G1 X57.013 Y-61.608 E27.18985
G1 X56.899 Y-60.883 E27.21362
G1 X56.698 Y-60.182 E27.23723
G1 X56.285 Y-59.273 E27.26953
G1 X56.148 Y-59.059 E27.27776
G1 X56.06 Y-59.01 E27.28101
G1 X55.983 Y-59.041 E27.2837
G1 X55.498 Y-59.52 E27.30574
G1 X55.369 Y-59.609 E27.31081
G1 X55.222 Y-59.656 E27.31582
G1 X55.11 Y-59.668 E27.31945
G1 X54.904 Y-59.638 E27.32619
G1 X54.757 Y-59.576 E27.33138
G1 X54.627 Y-59.488 E27.33645
G1 X-2.374 Y-2.487 E29.94532
G1 X-2.627 Y-2.74 F4200
G1 F600
G1 X-58.744 Y53.378 E32.51376
G1 X-58.885 Y53.564 E32.52133
G1 X-58.997 Y53.829 E32.53063
G1 X-59.029 Y54.016 E32.53676
G1 X-59 Y54.313 E32.54643
G1 X-58.914 Y54.552 E32.55466
G1 X-58.796 Y54.741 E32.56185
G1 X-58.14 Y55.409 E32.59216
G1 X-58.111 Y55.505 E32.59541
G1 X-58.145 Y55.564 E32.59761
G1 X-58.31 Y55.709 E32.6047
G1 X-58.868 Y56.091 E32.6266
G1 X-59.492 Y56.412 E32.64931
G1 X-60.167 Y56.656 E32.67251
G1 X-60.932 Y56.832 E32.69792
G1 X-61.615 Y56.898 E32.72014
G1 X-62.304 Y56.878 E32.74246
G1 X-62.973 Y56.775 E32.76435
G1 X-63.641 Y56.584 E32.78684
G1 X-64.46 Y56.218 E32.81586
G1 X-65.091 Y55.823 E32.83996
G1 X-65.769 Y55.247 E32.86875
G1 X-74.076 Y46.987 E33.24789
G1 X-74.107 Y46.911 E33.25055
G1 X-74.107 Y35.302 E33.62624
G1 X-74.076 Y35.227 E33.62889
G1 X34.63 Y-74.076 E38.6179
G1 X34.705 Y-74.107 E38.62056
M73 P0 R437
G1 X46.999 Y-74.107 E39.01841
G1 X47.074 Y-74.076 E39.02106
G1 X54.999 Y-66.195 E39.38278
G1 X55.471 Y-65.663 E39.40579
G1 X55.869 Y-65.084 E39.42853
G1 X56.189 Y-64.462 E39.45117
G1 X56.456 Y-63.711 E39.47697
G1 X56.611 Y-63.024 E39.49975
G1 X56.677 Y-62.337 E39.52207
G1 X56.655 Y-61.635 E39.54482
G1 X56.548 Y-60.953 E39.56714
G1 X56.358 Y-60.298 E39.58922
G1 X56.069 Y-59.661 E39.61188
G1 X55.99 Y-59.599 E39.61513
G1 X55.896 Y-59.629 E39.61829
G1 X55.755 Y-59.768 E39.62471
G1 X55.58 Y-59.897 E39.63176
G1 X55.335 Y-59.994 E39.64028
G1 X55.155 Y-60.022 E39.64617
G1 X55.055 Y-60.021 E39.64942
G1 X54.756 Y-59.963 E39.65926
G1 X54.552 Y-59.868 E39.66656
G1 X54.368 Y-59.735 E39.67389
G1 X-2.598 Y-2.768 E42.28119
G1 X-2.851 Y-3.021 F4200
G1 F600
G1 X-58.992 Y53.121 E44.85071
G1 X-59.164 Y53.341 E44.85974
G1 X-59.323 Y53.682 E44.87194
G1 X-59.379 Y53.946 E44.88067
G1 X-59.356 Y54.339 E44.8934
G1 X-59.252 Y54.666 E44.90452
G1 X-59.103 Y54.922 E44.91409
G1 X-58.674 Y55.375 E44.93428
G1 X-58.647 Y55.471 E44.93753
G1 X-58.691 Y55.537 E44.94009
G1 X-59.057 Y55.786 E44.95443
G1 X-59.629 Y56.08 E44.97524
G1 X-60.262 Y56.31 E44.99702
G1 X-60.982 Y56.477 E45.02095
G1 X-61.633 Y56.54 E45.04213
G1 X-62.265 Y56.522 E45.06259
G1 X-62.89 Y56.426 E45.08303
G1 X-63.511 Y56.25 E45.10394
G1 X-64.284 Y55.906 E45.13133
G1 X-64.885 Y55.529 E45.15428
G1 X-65.53 Y54.981 E45.18166
G1 X-73.719 Y46.838 E45.5554
G1 X-73.75 Y46.762 E45.55807
G1 X-73.75 Y35.449 E45.92419
G1 X-73.719 Y35.374 E45.92683
G1 X34.778 Y-73.719 E50.90627
G1 X34.854 Y-73.75 E50.90893
G1 X40.253 Y-73.75 E51.08368
G1 X40.342 Y-73.703 E51.08693
G1 X40.353 Y-73.603 E51.09018
G1 X40.299 Y-73.546 E51.09272
G1 X40.207 Y-73.503 E51.09599
G1 X39.863 Y-73.262 E51.10959
G1 X-72.97 Y40.199 E56.28824
G1 X-73.216 Y40.591 E56.30322
M73 P0 R436
G1 X-73.287 Y40.827 E56.31119
G1 X-73.316 Y41.103 E56.32018
G1 X-73.311 Y41.223 E56.32406
G1 X-73.222 Y41.607 E56.33681
G1 X-73.091 Y41.869 E56.34629
G1 X-72.967 Y42.038 E56.35307
G1 X-62.694 Y52.254 E56.82195
G1 X-62.303 Y52.5 E56.83693
G1 X-62.067 Y52.571 E56.8449
G1 X-61.791 Y52.6 E56.85388
G1 X-61.671 Y52.595 E56.85777
G1 X-61.287 Y52.506 E56.87052
G1 X-61.026 Y52.375 E56.87997
G1 X-60.802 Y52.204 E56.88909
G1 X52.033 Y-61.258 E62.06778
G1 X52.279 Y-61.649 E62.08276
G1 X52.35 Y-61.885 E62.09073
G1 X52.379 Y-62.161 E62.09972
G1 X52.374 Y-62.281 E62.1036
G1 X52.285 Y-62.665 E62.11635
G1 X52.154 Y-62.926 E62.1258
G1 X51.983 Y-63.151 E62.13493
G1 X41.847 Y-73.231 E62.59757
G1 X41.667 Y-73.383 E62.60519
G1 X41.365 Y-73.549 E62.61637
G1 X41.31 Y-73.633 E62.61962
G1 X41.348 Y-73.726 E62.62287
G1 X41.416 Y-73.75 E62.6252
G1 X46.851 Y-73.75 E62.8011
G1 X46.927 Y-73.719 E62.80374
G1 X54.737 Y-65.952 E63.16023
G1 X55.185 Y-65.448 E63.18206
G1 X55.558 Y-64.906 E63.20334
G1 X55.863 Y-64.313 E63.22492
G1 X56.11 Y-63.617 E63.24881
G1 X56.256 Y-62.974 E63.27016
G1 X56.318 Y-62.332 E63.29102
G1 X56.299 Y-61.675 E63.31231
G1 X56.2 Y-61.038 E63.33318
G1 X56.025 Y-60.43 E63.35366
G1 X55.937 Y-60.235 E63.36057
G1 X55.858 Y-60.173 E63.36382
G1 X55.788 Y-60.185 E63.36611
G1 X55.382 Y-60.348 E63.38028
G1 X55.144 Y-60.379 E63.38805
G1 X54.982 Y-60.37 E63.3933
G1 X54.597 Y-60.282 E63.40607
G1 X54.335 Y-60.152 E63.41552
G1 X54.11 Y-59.982 E63.42465
G1 X-2.823 Y-3.049 E66.03041
G1 X-3.075 Y-3.301 F4200
G1 F600
G1 X-59.239 Y52.863 E68.60098
G1 X-59.492 Y53.2 E68.61462
G1 X-59.642 Y53.522 E68.62612
G1 X-59.727 Y53.866 E68.63758
G1 X-59.735 Y53.974 E68.6411
G1 X-59.713 Y54.348 E68.65322
G1 X-59.594 Y54.766 E68.66728
G1 X-59.416 Y55.094 E68.67934
G1 X-59.22 Y55.319 E68.68902
G1 X-59.197 Y55.416 E68.69227
G1 X-59.251 Y55.484 E68.69509
G1 X-59.779 Y55.755 E68.71429
G1 X-60.357 Y55.965 E68.73421
G1 X-61.033 Y56.123 E68.75666
G1 X-61.639 Y56.182 E68.77636
G1 X-62.24 Y56.164 E68.79581
G1 X-62.82 Y56.075 E68.81483
G1 X-63.382 Y55.916 E68.83371
G1 X-64.109 Y55.593 E68.85947
G1 X-64.68 Y55.235 E68.88126
G1 X-65.285 Y54.721 E68.90696
G1 X-73.362 Y46.69 E69.27558
G1 X-73.393 Y46.614 E69.27825
G1 X-73.393 Y42.375 E69.41541
G1 X-73.346 Y42.287 E69.41867
G1 X-73.21 Y42.299 E69.42307
G1 X-62.954 Y52.499 E69.89121
G1 X-62.498 Y52.799 E69.90887
G1 X-62.4 Y52.844 E69.91236
G1 X-62.096 Y52.927 E69.92256
G1 X-61.77 Y52.956 E69.93316
G1 X-61.584 Y52.941 E69.93918
G1 X-61.116 Y52.82 E69.95482
G1 X-60.874 Y52.698 E69.96362
G1 X-60.591 Y52.492 E69.97494
G1 X52.278 Y-60.998 E75.15507
G1 X52.578 Y-61.454 E75.17273
M73 P0 R435
G1 X52.623 Y-61.552 E75.17622
G1 X52.706 Y-61.856 E75.18642
G1 X52.735 Y-62.183 E75.19702
G1 X52.72 Y-62.368 E75.20304
G1 X52.599 Y-62.836 E75.21868
G1 X52.477 Y-63.079 E75.22747
G1 X52.271 Y-63.362 E75.2388
G1 X42.375 Y-73.21 E75.69065
G1 X42.345 Y-73.306 E75.6939
G1 X42.45 Y-73.393 E75.69832
G1 X46.704 Y-73.393 E75.83598
G1 X46.78 Y-73.362 E75.83863
G1 X54.475 Y-65.708 E76.18988
G1 X54.907 Y-65.221 E76.21096
G1 X55.254 Y-64.716 E76.23079
G1 X55.531 Y-64.177 E76.2504
G1 X55.765 Y-63.524 E76.27286
G1 X55.901 Y-62.924 E76.29278
G1 X55.96 Y-62.327 E76.31218
G1 X55.943 Y-61.714 E76.33201
G1 X55.852 Y-61.122 E76.35142
G1 X55.736 Y-60.717 E76.36503
G1 X55.666 Y-60.645 E76.36828
G1 X55.601 Y-60.645 E76.37041
G1 X55.42 Y-60.703 E76.37654
G1 X55.117 Y-60.735 E76.38641
G1 X54.895 Y-60.716 E76.39362
G1 X54.528 Y-60.633 E76.40579
G1 X54.183 Y-60.475 E76.41807
G1 X53.852 Y-60.229 E76.4314
G1 X-3.047 Y-3.33 E79.03562
G1 X-3.299 Y-3.582 F4200
G1 F600
G1 X-59.486 Y52.605 E81.60722
G1 X-59.82 Y53.058 E81.62545
G1 X-59.991 Y53.445 E81.63913
G1 X-60.083 Y53.846 E81.65244
G1 X-60.091 Y54 E81.65744
G1 X-60.054 Y54.456 E81.67224
G1 X-59.941 Y54.854 E81.68563
G1 X-59.754 Y55.221 E81.69896
G1 X-59.755 Y55.321 E81.70221
G1 X-59.8 Y55.365 E81.70423
G1 X-59.928 Y55.429 E81.70887
G1 X-60.453 Y55.62 E81.72695
G1 X-61.098 Y55.77 E81.74838
G1 X-61.658 Y55.824 E81.76657
G1 X-62.2 Y55.808 E81.78414
G1 X-62.738 Y55.726 E81.80173
G1 X-63.267 Y55.576 E81.81954
G1 X-63.948 Y55.273 E81.84365
G1 X-64.474 Y54.941 E81.86379
G1 X-65.04 Y54.46 E81.88782
G1 X-73.004 Y46.541 E82.25131
G1 X-73.036 Y46.465 E82.25397
G1 X-73.036 Y43.234 E82.35855
G1 X-72.989 Y43.145 E82.3618
M73 P1 R435
G1 X-72.853 Y43.158 E82.3662
G1 X-63.141 Y52.804 E82.80921
G1 X-62.701 Y53.093 E82.82625
G1 X-62.487 Y53.19 E82.83385
G1 X-62.12 Y53.283 E82.8461
G1 X-61.733 Y53.311 E82.85866
G1 X-61.488 Y53.285 E82.86663
G1 X-60.948 Y53.135 E82.88479
G1 X-60.658 Y52.983 E82.89538
G1 X-60.332 Y52.739 E82.90856
G1 X52.524 Y-60.739 E88.08811
G1 X52.873 Y-61.253 E88.10822
G1 X52.945 Y-61.399 E88.11347
G1 X53.048 Y-61.754 E88.12544
G1 X53.09 Y-62.142 E88.13808
G1 X53.063 Y-62.466 E88.14859
G1 X52.947 Y-62.915 E88.16362
G1 X52.799 Y-63.233 E88.17496
G1 X52.564 Y-63.565 E88.18811
G1 X43.24 Y-72.853 E88.61405
G1 X43.21 Y-72.949 E88.6173
G1 X43.315 Y-73.036 E88.62172
G1 X46.557 Y-73.036 E88.72662
G1 X46.632 Y-73.005 E88.72926
G1 X54.213 Y-65.465 E89.07528
G1 X54.629 Y-64.995 E89.0956
G1 X54.95 Y-64.527 E89.11398
G1 X55.205 Y-64.028 E89.1321
G1 X55.419 Y-63.43 E89.15267
G1 X55.547 Y-62.873 E89.17117
G1 X55.602 Y-62.321 E89.18911
G1 X55.587 Y-61.753 E89.20749
G1 X55.489 Y-61.156 E89.22709
G1 X55.428 Y-61.076 E89.23034
G1 X55.079 Y-61.09 E89.24166
G1 X54.872 Y-61.073 E89.24836
G1 X54.458 Y-60.983 E89.26209
G1 X54.043 Y-60.803 E89.27672
G1 X53.594 Y-60.475 E89.29471
G1 X-3.271 Y-3.61 E91.89736
G1 E86.89736 F1500
;WIPE_START
G1 F600
G1 X-4.685 Y-2.196
;WIPE_END
G92 E0
G1 X-10.093 Y3.19 Z.6 F4200
G1 X-60.404 Y53.308 Z.6
G1 Z.2
G1 E5 F1500
G1 F600
G1 X-60.353 Y53.426 E5.00414
G1 X-60.429 Y53.757 E5.01513
G1 X-60.446 Y54.036 E5.02419
G1 X-60.395 Y54.561 E5.04127
G1 X-60.241 Y55.054 E5.05799
G1 X-60.26 Y55.153 E5.06124
G1 X-60.307 Y55.187 E5.06312
G1 X-60.561 Y55.279 E5.07188
G1 X-61.149 Y55.415 E5.0914
G1 X-61.663 Y55.466 E5.10812
G1 X-62.162 Y55.452 E5.12426
G1 X-62.655 Y55.378 E5.1404
G1 X-63.152 Y55.236 E5.15712
G1 X-63.785 Y54.953 E5.17959
G1 X-64.268 Y54.648 E5.19807
G1 X-64.795 Y54.2 E5.22044
G1 X-72.647 Y46.393 E5.57881
G1 X-72.679 Y46.317 E5.58147
G1 X-72.679 Y44.092 E5.65348
G1 X-72.632 Y44.003 E5.65673
G1 X-72.496 Y44.016 E5.66113
G1 X-63.4 Y53.05 E6.07603
G1 X-62.842 Y53.421 E6.09774
M73 P1 R434
G1 X-62.568 Y53.538 E6.10737
G1 X-62.138 Y53.64 E6.12165
G1 X-61.687 Y53.665 E6.13628
G1 X-61.385 Y53.627 E6.14613
G1 X-60.862 Y53.482 E6.16371
G1 X-60.504 Y53.305 E6.17661
G1 X-60.444 Y53.307 E6.17857
G1 X-60.838 Y53.894 F4200
G1 F600
G1 X-60.801 Y53.967 E6.18122
G1 X-60.751 Y54.588 E6.20137
G1 X-60.686 Y54.827 E6.20938
G1 X-60.708 Y54.925 E6.21263
G1 X-60.765 Y54.959 E6.21479
G1 X-61.2 Y55.061 E6.22925
G1 X-61.669 Y55.108 E6.24449
G1 X-62.137 Y55.095 E6.25963
G1 X-62.586 Y55.026 E6.27433
G1 X-63.036 Y54.897 E6.28951
G1 X-63.623 Y54.633 E6.31031
G1 X-64.062 Y54.354 E6.32715
G1 X-64.55 Y53.94 E6.34787
G1 X-72.29 Y46.244 E6.70112
G1 X-72.322 Y46.168 E6.70378
G1 X-72.322 Y44.95 E6.74321
G1 X-72.275 Y44.861 E6.74646
G1 X-72.139 Y44.874 E6.75087
G1 X-63.659 Y53.296 E7.13767
G1 X-62.973 Y53.753 E7.16435
G1 X-62.643 Y53.887 E7.17589
G1 X-62.23 Y53.985 E7.18961
G1 X-61.633 Y54.018 E7.20897
G1 X-61.283 Y53.969 E7.22041
G1 X-60.936 Y53.873 E7.23205
G1 X-60.877 Y53.886 E7.23401
G1 X-61.148 Y54.36 F4200
G1 F600
G1 X-61.122 Y54.422 E7.23617
G1 X-61.11 Y54.579 E7.24128
G1 X-61.15 Y54.671 E7.24453
G1 X-61.204 Y54.694 E7.24644
G1 X-61.689 Y54.75 E7.26224
G1 X-62.111 Y54.738 E7.27591
G1 X-62.516 Y54.675 E7.28916
G1 X-62.92 Y54.558 E7.30279
G1 X-63.446 Y54.321 E7.32144
G1 X-63.855 Y54.061 E7.33713
G1 X-64.311 Y53.674 E7.3565
G1 X-71.933 Y46.096 E7.70435
G1 X-71.965 Y46.02 E7.70701
G1 X-71.965 Y45.808 E7.71387
G1 X-71.918 Y45.719 E7.71712
G1 X-71.782 Y45.732 E7.72153
G1 X-63.918 Y53.542 E8.08024
G1 X-63.179 Y54.045 E8.10917
G1 X-62.783 Y54.215 E8.1231
G1 X-62.241 Y54.342 E8.14113
G1 X-61.662 Y54.374 E8.15989
G1 X-61.242 Y54.324 E8.17359
G1 X-61.186 Y54.346 E8.17554
G1 E3.17554 F1500
;WIPE_START
G1 F600
G1 X-61.122 Y54.422
G1 X-61.11 Y54.579
G1 X-61.15 Y54.671
G1 X-61.204 Y54.694
G1 X-61.689 Y54.75
G1 X-62.111 Y54.738
G1 X-62.516 Y54.675
G1 X-62.769 Y54.601
;WIPE_END
G92 E0
G1 X-57.358 Y49.218 Z.6 F4200
G1 X49.018 Y-56.612 Z.6
G1 Z.2
G1 E5 F1500
G1 F600
G1 X49.041 Y-56.73 E5.00388
G1 X52.771 Y-60.481 E5.17508
G1 X53.164 Y-61.047 E5.19739
G1 X53.29 Y-61.308 E5.20677
G1 X53.389 Y-61.646 E5.21817
G1 X53.444 Y-62.096 E5.23284
G1 X53.42 Y-62.488 E5.24554
G1 X53.295 Y-62.996 E5.26247
G1 X53.085 Y-63.446 E5.27854
G1 X52.81 Y-63.824 E5.29368
G1 X44.104 Y-72.496 E5.69136
G1 X44.075 Y-72.592 E5.69461
G1 X44.18 Y-72.679 E5.69903
G1 X46.409 Y-72.679 E5.77118
G1 X46.485 Y-72.648 E5.77382
G1 X53.951 Y-65.223 E6.1146
G1 X54.343 Y-64.78 E6.13373
G1 X54.639 Y-64.349 E6.15064
G1 X54.879 Y-63.88 E6.16772
G1 X55.073 Y-63.336 E6.18642
G1 X55.194 Y-62.808 E6.20393
G1 X55.244 Y-62.301 E6.22042
G1 X55.231 Y-61.794 E6.23682
G1 X55.19 Y-61.536 E6.24529
G1 X55.093 Y-61.447 E6.24955
G1 X54.791 Y-61.42 E6.25937
G1 X54.308 Y-61.307 E6.27542
